X: 35464
T: Rowling Hornpipe
R: three-two
M: 3/2
K: Gmajor
|:BAGB AGAB G2 G2|cBAG A2 d2 ABcA|
BAGB AGAc B2 B2|dcBA G2 G2 ABcA:|
|:defd efge f2ed|cBAG A2 A2 ABcA|
defd efge g2fe|dcBA G2 G2 ABcA:|

